;Generated with Cura_SteamEngine 2.1.99-master.20160930
M104 S200.0
M109 S200.0
G28 ;Home
G1 Z15.0 F6000 ;Move the platform down 15mm
;Prime the extruder
G92 E0
G1 F200 E3
G92 E0
;LAYER_COUNT:98
;LAYER:0
M107
G1 F1500.0 E-6.50000
G0 F3600.0 X85.38 Y97.422 Z.3
;TYPE:SKIRT
G1 F1500.0 E0.00000
G1 F1800.0 X85.923 Y96.849 E0.03938
G1 X86.522 Y96.334 E0.07880
G1 X87.17 Y95.883 E0.11818
G1 X87.861 Y95.499 E0.15762
G1 X88.586 Y95.187 E0.19700
G1 X89.339 Y94.95 E0.23638
G1 X90.113 Y94.791 E0.27581
G1 X90.898 Y94.71 E0.31518
G1 X91.3 Y94.7 E0.33524
G1 X101.3 Y94.7 E0.83414
G1 X102.089 Y94.74 E0.87356
G1 X102.869 Y94.859 E0.91292
G1 X103.634 Y95.057 E0.95234
G1 X104.374 Y95.331 E0.99171
G1 X105.083 Y95.679 E1.03112
G1 X105.754 Y96.097 E1.07056
G1 X106.378 Y96.58 E1.10992
G1 X106.951 Y97.123 E1.14931
G1 X107.466 Y97.722 E1.18872
G1 X107.917 Y98.37 E1.22811
G1 X108.301 Y99.061 E1.26755
G1 X108.613 Y99.786 E1.30692
G1 X108.85 Y100.539 E1.34631
G1 X109.009 Y101.313 E1.38573
G1 X109.09 Y102.098 E1.42510
G1 X109.1 Y102.5 E1.44516
G1 X109.1 Y112.5 E1.94407
G1 X109.06 Y113.289 E1.98348
G1 X108.941 Y114.069 E2.02284
G1 X108.743 Y114.834 E2.06227
G1 X108.469 Y115.574 E2.10164
G1 X108.121 Y116.283 E2.14104
G1 X107.703 Y116.954 E2.18048
G1 X107.22 Y117.578 E2.21985
G1 X106.677 Y118.151 E2.25923
G1 X106.078 Y118.666 E2.29864
G1 X105.43 Y119.117 E2.33803
G1 X104.739 Y119.501 E2.37747
G1 X104.014 Y119.813 E2.41685
G1 X103.261 Y120.05 E2.45623
G1 X102.487 Y120.209 E2.49565
G1 X101.702 Y120.29 E2.53503
G1 X101.3 Y120.3 E2.55509
G1 X91.3 Y120.3 E3.05399
G1 X90.511 Y120.26 E3.09340
G1 X89.731 Y120.141 E3.13277
G1 X88.966 Y119.943 E3.17219
G1 X88.226 Y119.669 E3.21156
G1 X87.517 Y119.321 E3.25096
G1 X86.846 Y118.903 E3.29040
G1 X86.222 Y118.42 E3.32977
G1 X85.649 Y117.877 E3.36916
G1 X85.134 Y117.278 E3.40857
G1 X84.683 Y116.63 E3.44796
G1 X84.299 Y115.939 E3.48740
G1 X83.987 Y115.214 E3.52677
G1 X83.75 Y114.461 E3.56616
G1 X83.591 Y113.687 E3.60558
G1 X83.51 Y112.902 E3.64495
G1 X83.5 Y112.5 E3.66501
G1 X83.5 Y102.5 E4.16391
G1 X83.54 Y101.711 E4.20333
G1 X83.659 Y100.931 E4.24269
G1 X83.857 Y100.166 E4.28212
G1 X84.131 Y99.426 E4.32148
G1 X84.479 Y98.717 E4.36089
G1 X84.897 Y98.046 E4.40033
G1 X85.38 Y97.422 E4.43970
G0 F3600.0 X85.775 Y97.577
G1 F1800.0 X86.316 Y97.03 E4.47808
G1 X86.911 Y96.542 E4.51647
G1 X87.553 Y96.119 E4.55483
G1 X88.236 Y95.764 E4.59323
G1 X88.951 Y95.483 E4.63156
G1 X89.693 Y95.277 E4.66998
G1 X90.451 Y95.149 E4.70833
G1 X91.3 Y95.1 E4.75076
G1 X101.3 Y95.1 E5.24966
G1 X102.068 Y95.14 E5.28803
G1 X102.828 Y95.259 E5.32640
G1 X103.571 Y95.457 E5.36477
G1 X104.29 Y95.731 E5.40315
G1 X104.976 Y96.078 E5.44151
G1 X105.623 Y96.494 E5.47988
G1 X106.223 Y96.975 E5.51825
G1 X106.77 Y97.516 E5.55663
G1 X107.258 Y98.111 E5.59502
G1 X107.681 Y98.753 E5.63338
G1 X108.036 Y99.436 E5.67178
G1 X108.317 Y100.151 E5.71011
G1 X108.523 Y100.893 E5.74853
G1 X108.651 Y101.651 E5.78688
G1 X108.7 Y102.5 E5.82931
G1 X108.7 Y112.5 E6.32821
G1 X108.66 Y113.268 E6.36658
G1 X108.541 Y114.028 E6.40496
G1 X108.343 Y114.771 E6.44332
G1 X108.069 Y115.49 E6.48171
G1 X107.722 Y116.176 E6.52006
G1 X107.306 Y116.823 E6.55844
G1 X106.825 Y117.423 E6.59680
G1 X106.284 Y117.97 E6.63518
G1 X105.689 Y118.458 E6.67358
G1 X105.047 Y118.881 E6.71193
G1 X104.364 Y119.236 E6.75034
G1 X103.649 Y119.517 E6.78866
G1 X102.907 Y119.723 E6.82708
G1 X102.149 Y119.851 E6.86543
G1 X101.3 Y119.9 E6.90786
G1 X91.3 Y119.9 E7.40676
G1 X90.532 Y119.86 E7.44513
G1 X89.772 Y119.741 E7.48351
G1 X89.029 Y119.543 E7.52187
G1 X88.31 Y119.269 E7.56026
G1 X87.624 Y118.922 E7.59861
G1 X86.977 Y118.506 E7.63699
G1 X86.377 Y118.025 E7.67535
G1 X85.83 Y117.484 E7.71374
G1 X85.342 Y116.889 E7.75213
G1 X84.919 Y116.247 E7.79049
G1 X84.564 Y115.564 E7.82889
G1 X84.283 Y114.849 E7.86722
G1 X84.077 Y114.107 E7.90563
G1 X83.949 Y113.349 E7.94399
G1 X83.9 Y112.5 E7.98641
G1 X83.9 Y102.5 E8.48532
G1 X83.94 Y101.732 E8.52368
G1 X84.059 Y100.972 E8.56206
G1 X84.257 Y100.229 E8.60042
G1 X84.531 Y99.51 E8.63881
G1 X84.878 Y98.824 E8.67717
G1 X85.294 Y98.177 E8.71554
G1 X85.775 Y97.577 E8.75391
G0 F3600.0 X86.171 Y97.737
G1 F1800.0 X86.708 Y97.216 E8.79123
G1 X87.298 Y96.757 E8.82853
G1 X87.934 Y96.362 E8.86588
G1 X88.608 Y96.038 E8.90319
G1 X89.313 Y95.788 E8.94051
G1 X90.041 Y95.614 E8.97785
G1 X90.783 Y95.519 E9.01517
G1 X91.3 Y95.5 E9.04098
G1 X101.3 Y95.5 E9.53988
G1 X102.047 Y95.54 E9.57721
G1 X102.785 Y95.659 E9.61450
G1 X103.507 Y95.857 E9.65185
G1 X104.203 Y96.13 E9.68915
G1 X104.866 Y96.477 E9.72648
G1 X105.489 Y96.892 E9.76383
G1 X106.063 Y97.371 E9.80113
G1 X106.584 Y97.908 E9.83846
G1 X107.043 Y98.498 E9.87575
G1 X107.438 Y99.134 E9.91310
G1 X107.762 Y99.808 E9.95041
G1 X108.012 Y100.513 E9.98773
G1 X108.186 Y101.241 E10.02507
G1 X108.281 Y101.983 E10.06239
G1 X108.3 Y102.5 E10.08820
G1 X108.3 Y112.5 E10.58711
G1 X108.26 Y113.247 E10.62443
G1 X108.141 Y113.985 E10.66172
G1 X107.943 Y114.707 E10.69907
G1 X107.67 Y115.403 E10.73637
G1 X107.323 Y116.066 E10.77371
G1 X106.908 Y116.689 E10.81105
G1 X106.429 Y117.263 E10.84835
G1 X105.892 Y117.784 E10.88568
G1 X105.302 Y118.243 E10.92297
G1 X104.666 Y118.638 E10.96032
G1 X103.992 Y118.962 E10.99763
G1 X103.287 Y119.212 E11.03495
G1 X102.559 Y119.386 E11.07230
G1 X101.817 Y119.481 E11.10962
G1 X101.3 Y119.5 E11.13543
G1 X91.3 Y119.5 E11.63433
G1 X90.553 Y119.46 E11.67165
G1 X89.815 Y119.341 E11.70894
G1 X89.093 Y119.143 E11.74630
G1 X88.397 Y118.87 E11.78359
G1 X87.734 Y118.523 E11.82093
G1 X87.111 Y118.108 E11.85827
G1 X86.537 Y117.629 E11.89557
G1 X86.016 Y117.092 E11.93290
G1 X85.557 Y116.502 E11.97019
G1 X85.162 Y115.866 E12.00755
G1 X84.838 Y115.192 E12.04486
G1 X84.588 Y114.487 E12.08217
G1 X84.414 Y113.759 E12.11952
G1 X84.319 Y113.017 E12.15684
G1 X84.3 Y112.5 E12.18265
G1 X84.3 Y102.5 E12.68155
G1 X84.34 Y101.753 E12.71887
G1 X84.459 Y101.015 E12.75617
G1 X84.657 Y100.293 E12.79352
G1 X84.93 Y99.597 E12.83082
G1 X85.277 Y98.934 E12.86815
G1 X85.692 Y98.311 E12.90550
G1 X86.171 Y97.737 E12.94279
G0 F3600.0 X86.565 Y97.902
G1 F1800.0 X87.099 Y97.409 E12.97905
G1 X87.684 Y96.979 E13.01528
G1 X88.313 Y96.615 E13.05153
G1 X88.978 Y96.322 E13.08779
G1 X89.671 Y96.104 E13.12403
G1 X90.383 Y95.964 E13.16023
G1 X91.3 Y95.9 E13.20609
G1 X101.3 Y95.9 E13.70500
G1 X102.025 Y95.94 E13.74122
G1 X102.742 Y96.059 E13.77748
G1 X103.441 Y96.257 E13.81373
G1 X104.114 Y96.53 E13.84996
G1 X104.753 Y96.875 E13.88619
G1 X105.35 Y97.289 E13.92244
G1 X105.898 Y97.765 E13.95865
G1 X106.391 Y98.299 E13.99491
G1 X106.821 Y98.884 E14.03113
G1 X107.185 Y99.513 E14.06739
G1 X107.478 Y100.178 E14.10364
G1 X107.696 Y100.871 E14.13989
G1 X107.836 Y101.583 E14.17609
G1 X107.9 Y102.5 E14.22195
G1 X107.9 Y112.5 E14.72085
G1 X107.86 Y113.225 E14.75708
G1 X107.741 Y113.942 E14.79334
G1 X107.543 Y114.641 E14.82958
G1 X107.27 Y115.314 E14.86582
G1 X106.925 Y115.953 E14.90204
G1 X106.511 Y116.55 E14.93829
G1 X106.035 Y117.098 E14.97450
G1 X105.501 Y117.591 E15.01076
G1 X104.916 Y118.021 E15.04698
G1 X104.287 Y118.385 E15.08324
G1 X103.622 Y118.678 E15.11950
G1 X102.929 Y118.896 E15.15574
G1 X102.217 Y119.036 E15.19194
G1 X101.3 Y119.1 E15.23780
G1 X91.3 Y119.1 E15.73670
G1 X90.575 Y119.06 E15.77293
G1 X89.858 Y118.941 E15.80919
G1 X89.159 Y118.743 E15.84544
G1 X88.486 Y118.47 E15.88167
G1 X87.847 Y118.125 E15.91790
G1 X87.25 Y117.711 E15.95414
G1 X86.702 Y117.235 E15.99036
G1 X86.209 Y116.701 E16.02662
G1 X85.779 Y116.116 E16.06284
G1 X85.415 Y115.487 E16.09910
G1 X85.122 Y114.822 E16.13535
G1 X84.904 Y114.129 E16.17159
G1 X84.764 Y113.417 E16.20780
G1 X84.7 Y112.5 E16.25366
G1 X84.7 Y102.5 E16.75256
G1 X84.74 Y101.775 E16.78878
G1 X84.859 Y101.058 E16.82505
G1 X85.057 Y100.359 E16.86129
G1 X85.33 Y99.686 E16.89752
G1 X85.675 Y99.047 E16.93375
G1 X86.089 Y98.45 E16.97000
G1 X86.565 Y97.902 E17.00621
G0 F3600.0 X86.959 Y98.073
G1 F1800.0 X87.489 Y97.609 E17.04136
G1 X88.068 Y97.209 E17.07647
G1 X88.689 Y96.877 E17.11160
G1 X89.343 Y96.617 E17.14671
G1 X90.023 Y96.433 E17.18185
G1 X90.719 Y96.327 E17.21698
G1 X91.3 Y96.3 E17.24600
G1 X101.3 Y96.3 E17.74490
G1 X102.003 Y96.34 E17.78003
G1 X102.697 Y96.459 E17.81516
G1 X103.372 Y96.657 E17.85025
G1 X104.021 Y96.929 E17.88536
G1 X104.635 Y97.274 E17.92050
G1 X105.206 Y97.685 E17.95559
G1 X105.727 Y98.159 E17.99074
G1 X106.191 Y98.689 E18.02588
G1 X106.591 Y99.268 E18.06099
G1 X106.923 Y99.889 E18.09612
G1 X107.183 Y100.543 E18.13123
G1 X107.367 Y101.223 E18.16638
G1 X107.473 Y101.919 E18.20150
G1 X107.5 Y102.5 E18.23052
G1 X107.5 Y112.5 E18.72942
G1 X107.46 Y113.203 E18.76455
G1 X107.341 Y113.897 E18.79968
G1 X107.143 Y114.572 E18.83477
G1 X106.871 Y115.221 E18.86988
G1 X106.526 Y115.835 E18.90502
G1 X106.115 Y116.406 E18.94012
G1 X105.641 Y116.927 E18.97526
G1 X105.111 Y117.391 E19.01040
G1 X104.532 Y117.791 E19.04551
G1 X103.911 Y118.123 E19.08064
G1 X103.257 Y118.383 E19.11575
G1 X102.577 Y118.567 E19.15090
G1 X101.881 Y118.673 E19.18602
G1 X101.3 Y118.7 E19.21504
G1 X91.3 Y118.7 E19.71394
G1 X90.597 Y118.66 E19.74907
G1 X89.903 Y118.541 E19.78420
G1 X89.228 Y118.343 E19.81930
G1 X88.579 Y118.071 E19.85440
G1 X87.965 Y117.726 E19.88954
G1 X87.394 Y117.315 E19.92464
G1 X86.873 Y116.841 E19.95978
G1 X86.409 Y116.311 E19.99492
G1 X86.009 Y115.732 E20.03003
G1 X85.677 Y115.111 E20.06517
G1 X85.417 Y114.457 E20.10028
G1 X85.233 Y113.777 E20.13542
G1 X85.127 Y113.081 E20.17055
G1 X85.1 Y112.5 E20.19956
G1 X85.1 Y102.5 E20.69847
G1 X85.14 Y101.797 E20.73360
G1 X85.259 Y101.103 E20.76873
G1 X85.457 Y100.428 E20.80382
G1 X85.729 Y99.779 E20.83893
G1 X86.074 Y99.165 E20.87406
G1 X86.485 Y98.594 E20.90916
G1 X86.959 Y98.073 E20.94430
G0 F3600.0 X87.353 Y98.251
G1 F1800.0 X87.878 Y97.817 E20.97829
G1 X88.45 Y97.448 E21.01225
G1 X89.062 Y97.149 E21.04623
G1 X89.704 Y96.924 E21.08017
G1 X90.369 Y96.775 E21.11417
G1 X91.3 Y96.7 E21.16077
G1 X101.3 Y96.7 E21.65967
G1 X101.98 Y96.74 E21.69365
G1 X102.65 Y96.859 E21.72760
G1 X103.302 Y97.056 E21.76158
G1 X103.926 Y97.328 E21.79554
G1 X104.514 Y97.672 E21.82953
G1 X105.058 Y98.082 E21.86352
G1 X105.549 Y98.553 E21.89746
G1 X105.983 Y99.078 E21.93144
G1 X106.352 Y99.65 E21.96540
G1 X106.651 Y100.262 E21.99939
G1 X106.876 Y100.904 E22.03333
G1 X107.025 Y101.569 E22.06733
G1 X107.1 Y102.5 E22.11392
G1 X107.1 Y112.5 E22.61283
G1 X107.06 Y113.18 E22.64681
G1 X106.941 Y113.85 E22.68076
G1 X106.744 Y114.502 E22.71474
G1 X106.472 Y115.126 E22.74870
G1 X106.128 Y115.714 E22.78269
G1 X105.718 Y116.258 E22.81667
G1 X105.247 Y116.749 E22.85062
G1 X104.722 Y117.183 E22.88460
G1 X104.15 Y117.552 E22.91856
G1 X103.538 Y117.851 E22.95254
G1 X102.896 Y118.076 E22.98648
G1 X102.231 Y118.225 E23.02048
G1 X101.3 Y118.3 E23.06708
G1 X91.3 Y118.3 E23.56598
G1 X90.62 Y118.26 E23.59997
G1 X89.95 Y118.141 E23.63392
G1 X89.298 Y117.944 E23.66790
G1 X88.674 Y117.672 E23.70186
G1 X88.086 Y117.328 E23.73584
G1 X87.542 Y116.918 E23.76983
G1 X87.051 Y116.447 E23.80377
G1 X86.617 Y115.922 E23.83776
G1 X86.248 Y115.35 E23.87172
G1 X85.949 Y114.738 E23.90570
G1 X85.724 Y114.096 E23.93964
G1 X85.575 Y113.431 E23.97364
G1 X85.5 Y112.5 E24.02024
G1 X85.5 Y102.5 E24.51914
G1 X85.54 Y101.82 E24.55312
G1 X85.659 Y101.15 E24.58707
G1 X85.856 Y100.498 E24.62105
G1 X86.128 Y99.874 E24.65501
G1 X86.472 Y99.286 E24.68900
G1 X86.882 Y98.742 E24.72299
G1 X87.353 Y98.251 E24.75693
G0 F3600.0 X87.745 Y98.435
G1 F1800.0 X88.265 Y98.034 E24.78969
G1 X88.829 Y97.698 E24.82244
G1 X89.431 Y97.434 E24.85524
G1 X90.06 Y97.244 E24.88802
G1 X90.707 Y97.133 E24.92077
G1 X91.3 Y97.1 E24.95040
G1 X101.3 Y97.1 E25.44930
G1 X101.956 Y97.14 E25.48209
G1 X102.602 Y97.259 E25.51486
G1 X103.229 Y97.456 E25.54765
G1 X103.827 Y97.728 E25.58043
G1 X104.388 Y98.07 E25.61321
G1 X104.903 Y98.478 E25.64599
G1 X105.365 Y98.945 E25.67876
G1 X105.766 Y99.465 E25.71152
G1 X106.102 Y100.029 E25.74427
G1 X106.366 Y100.631 E25.77707
G1 X106.556 Y101.26 E25.80985
G1 X106.667 Y101.907 E25.84260
G1 X106.7 Y102.5 E25.87223
G1 X106.7 Y112.5 E26.37113
G1 X106.66 Y113.156 E26.40392
G1 X106.541 Y113.802 E26.43669
G1 X106.344 Y114.429 E26.46948
G1 X106.072 Y115.027 E26.50226
G1 X105.73 Y115.588 E26.53504
G1 X105.322 Y116.103 E26.56782
G1 X104.855 Y116.565 E26.60059
G1 X104.335 Y116.966 E26.63335
G1 X103.771 Y117.302 E26.66610
G1 X103.169 Y117.566 E26.69890
G1 X102.54 Y117.756 E26.73168
G1 X101.893 Y117.867 E26.76443
G1 X101.3 Y117.9 E26.79406
G1 X91.3 Y117.9 E27.29296
G1 X90.644 Y117.86 E27.32575
G1 X89.998 Y117.741 E27.35852
G1 X89.371 Y117.544 E27.39131
G1 X88.773 Y117.272 E27.42409
G1 X88.212 Y116.93 E27.45687
G1 X87.697 Y116.522 E27.48965
G1 X87.235 Y116.055 E27.52242
G1 X86.834 Y115.535 E27.55518
G1 X86.498 Y114.971 E27.58793
G1 X86.234 Y114.369 E27.62073
G1 X86.044 Y113.74 E27.65351
G1 X85.933 Y113.093 E27.68626
G1 X85.9 Y112.5 E27.71589
G1 X85.9 Y102.5 E28.21479
G1 X85.94 Y101.844 E28.24758
G1 X86.059 Y101.198 E28.28035
G1 X86.256 Y100.571 E28.31314
G1 X86.528 Y99.973 E28.34592
G1 X86.87 Y99.412 E28.37870
G1 X87.278 Y98.897 E28.41148
G1 X87.745 Y98.435 E28.44425
G0 F3600.0 X88.136 Y98.629
G1 F1800.0 X88.65 Y98.26 E28.47582
G1 X89.206 Y97.96 E28.50734
G1 X89.795 Y97.732 E28.53885
G1 X90.409 Y97.58 E28.57040
G1 X91.3 Y97.5 E28.61503
G1 X101.3 Y97.5 E29.11394
G1 X101.931 Y97.54 E29.14548
G1 X102.552 Y97.659 E29.17703
G1 X103.152 Y97.856 E29.20853
G1 X103.724 Y98.127 E29.24011
G1 X104.256 Y98.467 E29.27161
G1 X104.741 Y98.873 E29.30316
G1 X105.171 Y99.336 E29.33469
G1 X105.54 Y99.85 E29.36626
G1 X105.84 Y100.406 E29.39778
G1 X106.068 Y100.995 E29.42929
G1 X106.22 Y101.609 E29.46084
G1 X106.3 Y102.5 E29.50547
G1 X106.3 Y112.5 E30.00438
G1 X106.26 Y113.131 E30.03592
G1 X106.141 Y113.752 E30.06747
G1 X105.944 Y114.352 E30.09897
G1 X105.673 Y114.924 E30.13055
G1 X105.333 Y115.456 E30.16205
G1 X104.927 Y115.941 E30.19360
G1 X104.464 Y116.371 E30.22513
G1 X103.95 Y116.74 E30.25670
G1 X103.394 Y117.04 E30.28822
G1 X102.805 Y117.268 E30.31973
G1 X102.191 Y117.42 E30.35128
G1 X101.3 Y117.5 E30.39591
G1 X91.3 Y117.5 E30.89482
G1 X90.669 Y117.46 E30.92636
G1 X90.048 Y117.341 E30.95791
G1 X89.448 Y117.144 E30.98941
G1 X88.876 Y116.873 E31.02099
G1 X88.344 Y116.533 E31.05249
G1 X87.859 Y116.127 E31.08404
G1 X87.429 Y115.664 E31.11557
G1 X87.06 Y115.15 E31.14714
G1 X86.76 Y114.594 E31.17866
G1 X86.532 Y114.005 E31.21017
G1 X86.38 Y113.391 E31.24172
G1 X86.3 Y112.5 E31.28635
G1 X86.3 Y102.5 E31.78526
G1 X86.34 Y101.869 E31.81680
G1 X86.459 Y101.248 E31.84835
G1 X86.656 Y100.648 E31.87985
G1 X86.927 Y100.076 E31.91143
G1 X87.267 Y99.544 E31.94293
G1 X87.673 Y99.059 E31.97448
G1 X88.136 Y98.629 E32.00601
G0 F3600.0 X88.525 Y98.831
G1 F1800.0 X89.032 Y98.498 E32.03627
G1 X89.578 Y98.234 E32.06653
G1 X90.154 Y98.045 E32.09677
G1 X90.75 Y97.933 E32.12703
G1 X91.3 Y97.9 E32.15452
G1 X101.3 Y97.9 E32.65342
G1 X101.905 Y97.94 E32.68367
G1 X102.499 Y98.059 E32.71389
G1 X103.073 Y98.255 E32.74415
G1 X103.616 Y98.526 E32.77443
G1 X104.119 Y98.865 E32.80469
G1 X104.572 Y99.267 E32.83491
G1 X104.969 Y99.725 E32.86515
G1 X105.302 Y100.232 E32.89541
G1 X105.566 Y100.778 E32.92567
G1 X105.755 Y101.354 E32.95591
G1 X105.867 Y101.95 E32.98617
G1 X105.9 Y102.5 E33.01365
G1 X105.9 Y112.5 E33.51256
G1 X105.86 Y113.105 E33.54281
G1 X105.741 Y113.699 E33.57303
G1 X105.545 Y114.273 E33.60329
G1 X105.274 Y114.816 E33.63357
G1 X104.935 Y115.319 E33.66383
G1 X104.533 Y115.772 E33.69404
G1 X104.075 Y116.169 E33.72428
G1 X103.568 Y116.502 E33.75455
G1 X103.022 Y116.766 E33.78480
G1 X102.446 Y116.955 E33.81505
G1 X101.85 Y117.067 E33.84530
G1 X101.3 Y117.1 E33.87279
G1 X91.3 Y117.1 E34.37169
G1 X90.695 Y117.06 E34.40194
G1 X90.101 Y116.941 E34.43217
G1 X89.527 Y116.745 E34.46243
G1 X88.984 Y116.474 E34.49270
G1 X88.481 Y116.135 E34.52297
G1 X88.028 Y115.733 E34.55318
G1 X87.631 Y115.275 E34.58342
G1 X87.298 Y114.768 E34.61368
G1 X87.034 Y114.222 E34.64394
G1 X86.845 Y113.646 E34.67418
G1 X86.733 Y113.05 E34.70444
G1 X86.7 Y112.5 E34.73193
G1 X86.7 Y102.5 E35.23083
G1 X86.74 Y101.895 E35.26108
G1 X86.859 Y101.301 E35.29130
G1 X87.055 Y100.727 E35.32156
G1 X87.326 Y100.184 E35.35184
